X: 35598
T: Sacster's
R: jig
M: 6/8
K: Dmajor
|:ABA F2A|D2A F2A|d2e f2d|e2d B2d|
ABA F2A|D2A F2A|d2e f2d|ABcd3:|
|:d2fa2f|d'2ab2a|g3f3|efe a2g|
f3g3|afd d'2a|bc'b aba|gfe d3:|

